X:1
T:Liederkreis, Op.39
T:Frühlingsnacht
T:12. Frühlingsnacht
T:Robert Schumann
T:Liederkreis, Op.39
T:Joseph von Eichendorff
T:OpenScore (CC0)
T:OpenScore (CC0)
C:Robert Schumann
Z:Joseph von Eichendorff
Z:OpenScore (CC0)
%%score 1 { ( 2 4 5 ) | ( 3 6 7 ) }
L:1/8
Q:1/4=60
M:2/4
K:F#
V:1 treble nm="Voice"
V:2 treble nm="Piano"
V:4 treble 
V:5 treble 
V:3 bass 
V:6 bass 
V:7 bass 
V:1
"^Ziemlich rasch.""^T" z2"^Leidenschaftlich." z!p! F/ =E/ | D3/2 D/ (D/^^F/A/) c/ | c B z2 | %3
w: Ü- berm|Gar- ten durch * * die|Lüf- te|
 E3/2 E/ E/ ^^G/ ^B/ d/ | c2 z d/ A/ | =B B A3/2 ^E/ | F F z2 | %7
w: hört' ich Wan- der- vö- gel|zieh'n, das be-|deu- tet Früh- lings-|düf- te,|
 A3/2 D/ D/[Q:1/4=45]"^T""^dim." (.D/ .E/ .F/) |"^Im Tempo"[Q:1/4=60]"^T" E2 z2 | %9
w: un- ten fängt's schon an zu|blüh'n.|
!p! A3/2 A/ A/ A/ A/ A/ | B B z B/ B/ | A3/2 A/ (B/A/G/)!<(! F/!<)! |{F} B2 z B/ B/ | %13
w: Jauch- zen möcht' ich, möch- te|wei- nen, ist mir's|doch, als könnt's * * nicht|sein! Al- le|
!<(! (^B/ c/) c ^^c3/2 c/!<)! | ^^c d z d/ d/ | d2- d/[Q:1/4=50]"^T" d/"^dim." f/ e/ | %16
w: Wun- * der wie- der|schei- nen mit dem|Mon- * des- glanz her-|
"_Im Tempo"[Q:1/4=60]"^T" ^c2 z2 | z2 z F/ =E/ |!<(! D3/2 D/ (D/!<)!c) c/ | c B z G/ F/ | %20
w: ein.|Und der|Mond, die Ster- * ne|sa- gen's, und im|
 E3/2 E/!<(! (E/^^G/^B/)!<)! d/ | c2 z d/ A/ | =B3/2 B/ (B/c) G/ | A A2!f! e/ d/ | %24
w: Trau- me rauscht's _ _ der|Hain, und die|Nach- ti- gal- * len|schla- gen's: „Sie ist|
 c2- c/ ^^c/ d/ ^c/ | F2 z2 | z4 | z4 | z4[Q:1/4=50]"^T" | z4 | z4 |] %31
w: Dei- * ne, sie ist|Dein!”||||||
V:2
!p! (3z/!<(! ([ca]/[ca]/) (3([ca]/[cg]/[cg]/) (3[cg]/[cf]/[cf]/ (3[cf]/!<)![c=e]/[ce]/ | %1
 (3z/ [cd]/[cd]/!<(! (3[cd]/[cd]/[cd]/ (3[cd]/[cd]/[cd]/ (3[cd]/[cd]/!<)![cd]/ | %2
 (3z/!<(! [db]/[db]/ (3[db]/[da]/!<)![da]/ (3[da]/[dg]/[dg]/ (3[dg]/[df]/[df]/ | %3
 (3z/!<(! [d^e]/[de]/ (3[de]/[de]/[de]/ (3[de]/[de]/[de]/ (3[de]/[de]/[de]/!<)! | %4
 (3z/ [e^bc']/[ebc']/ (3[ebc']/[eac']/[eac']/ (3z/!<(! [dad']/[dad']/ (3[dad']/[dad']/[dad']/!<)! | %5
 (3z/ [da=b]/[dab]/ (3[dab]/[dgb]/[dgb]/ (3z/!<(! [^^cga]/[cga]/ (3[cga]/[cga]/[cga]/!<)! | %6
 (3z/ [dfa]/[dfa]/ (3[dfa]/[dfa]/[dfa]/ (3([dfa]/^c/)[cfa]/ (3[cfa]/[cfa]/[cfa]/ | %7
 (3z/ [^Bfa]/[Bfa]/ (3[Bfa]/[Bfa]/[Bfa]/ [Bfa]/"_dim." (.[Bd]/ .[Be]/ .[Bf]/) | %8
 (3z/!<(! [Ge]/[Ge]/ (3[Ge]/[Gd]/[Gd]/ (3[Gd]/[Gc]/!<)![Gc]/!>(! (3[Gc]/[EB]/[EB]/!>)! | %9
!p! z/!<(! (A/d/c/ B/A/G/F/!<)! |!<(! B) (a/g/ f/e/d/c/!<)! | B/)(A/d/c/ B/A/G/F/ | %12
!<(! B) (a/g/ f/e/d/c/)!<)! | %13
 (3z/ [^B,^B]/[B,B]/ (3z/ [Cc]/[Cc]/ (3z/ [^^C^G^^c]/[CGc]/ (3[CGc]/[CGc]/[CGc]/ | %14
 (3z/ [DFd]/[DFd]/ (3[DFd]/[DFd]/[DFd]/ (3z/ [EGde]/[EGde]/ (3[EGde]/[EGde]/[EGde]/ | %15
 (3z/ [Gdf]/[Gdf]/ (3[Gdf]/[Gdf]/[Gdf]/ [Gdf]/"_dim." (.[df]/ .[fa]/ .[eg]/) | %16
 (3z/ [Gce]/!<(![Gce]/ (3[Gce]/[^^G^Bf]/[GBf]/ (3[GBf]/[Ac^^f]/[Acf]/ (3[Acf]/[=Bc^g]/[Bcg]/!<)! | %17
 (3z/!<(! [ca]/[ca]/ (3[ca]/[cg]/!<)![cg]/ (3[cg]/[cf]/[cf]/ (3[cf]/[c=e]/[ce]/ | %18
!<(! (3z/ [cd]/[cd]/ (3[cd]/[cd]/[cd]/ (3[cd]/[cd]/[cd]/ (3[cd]/[cd]/[cd]/!<)! | %19
 (3z/!<(! [db]/[db]/ (3[db]/[da]/!<)![da]/!>(! (3[da]/[dg]/[dg]/ (3[dg]/[df]/[df]/!>)! | %20
 (3z/!<(! [d^e]/[de]/ (3[de]/[de]/[de]/ (3[de]/[de]/[de]/ (3[de]/[de]/[de]/!<)! | %21
 (3z/ [eac']/[eac']/ (3[eac']/[eac']/[eac']/!f! (3z/ [dad']/[dad']/ (3[dad']/[dad']/[dad']/ | %22
 (3z/ [dg=b]/[dgb]/ (3[dgb]/[dgb]/[dgb]/!f! (3z/ [cgb]/[cgb]/ (3[cgb]/[cgb]/[cgb]/ | %23
!f! z/!<(! (c/-b/a/ g/f/e/d/)!<)! | %24
 (3z/!<(! [Fc]/[Fc]/ (3[Fc]/[Fc]/[Fc]/!<)! [Fc]/ (.[F^^c]/ .[Fd]/ .[E^c]/) | %25
 (3z/ [A,=E]/[A,E]/ (3[A,E]/[A,E]/[A,E]/ (3[A,E]/[A,E]/[A,E]/ (3[A,E]/[A,E]/[A,E]/ | %26
!<(! (3[B,=E]/[B,E]/[B,E]/ (3[B,D]/[B,D]/[B,D]/!<)! (3z/ [B,G]/[B,G]/ (3z/ [B,G]/[B,G]/ | %27
 (3z/ [A,C]/[A,C]/ (3[A,C]/[A,C]/[A,C]/ (3[A,C]/[A,C]/[A,C]/ (3[A,C]/[A,C]/[A,C]/ | %28
 (3z/"^dim." [A,C]/[A,C]/ (3[A,C]/[A,C]/[A,C]/ (3[A,C]/[A,C]/[A,C]/ (3[A,C]/[A,C]/[A,C]/ | F2 F2- | %30
 F2 z2 |] %31
V:3
!ped! (3F,/!ped-up![K:treble]([CA]/[CA]/) (3([CA]/[CGA]/[CGA]/) (3([CGA]/[CFA]/[CFA]/) (3[CFA]/[C=EA]/[CEA]/ | %1
[K:bass] (3^^F,/[K:treble][CDA]/[CDA]/(3[CDA]/[CDA]/[CDA]/ (3[CDA]/[CDA]/[CDA]/(3[CDA]/[CDA]/[CDA]/ | %2
 (3G,/[DB]/[DB]/ (3[DB]/[DAB]/[DAB]/ (3[DAB]/[DGB]/[DGB]/ (3[DGB]/[DFB]/[DFB]/ | %3
 (3^^G,/[D^E^B]/[DEB]/ (3[DEB]/[DEB]/[DEB]/ (3[DEB]/[DEB]/[DEB]/ (3[DEB]/[DEB]/[DEB]/ | %4
 (3A,/[E^Bc]/[EBc]/ (3[EBc]/[EAc]/[EAc]/ (3^^F,/ [DAc]/[DAc]/ (3[DAc]/[DAc]/[DAc]/ | %5
 (3G,/[DA=B]/[DAB]/ (3[DAB]/[DGB]/[DGB]/ (3E,/[^^CGA]/[CGA]/ (3[CGA]/[CGA]/[CGA]/ | %6
[K:bass] (3D,/[K:treble] [DFA]/[DFA]/ (3[DFA]/[DFA]/[DFA]/ (3([DFA]/^C/)[CFA]/ (3[CFA]/[CFA]/[CFA]/ | %7
 (3G,/[^B,FA]/[B,FA]/ (3[B,FA]/[B,FA]/[B,FA]/ [B,FA]/ (.[FG]/ .[EG]/ .[DF]/) | %8
[K:bass] (3C,/ [CE]/[CE]/ (3[CE]/[=B,E]/[B,E]/ (3[B,E]/[A,E]/[A,E]/ (3[A,E]/[G,C]/[G,C]/ | %9
!ped! (3F,,/ [C,C]/[C,C]/ (3[C,C]/[C,C]/[C,C]/ (3[C,C]/[C,C]/[C,C]/ (3[C,C]/[C,C]/[C,C]/!ped-up! | %10
!ped! (3G,,/ [C,C]/[C,C]/ (3[C,C]/[C,C]/[C,C]/ (3[C,C]/[C,C]/[C,C]/ (3[C,C]/[C,C]/[C,C]/!ped-up! | %11
!ped! (3F,,/ [C,C]/[C,C]/ (3[C,C]/[C,C]/[C,C]/ (3[C,C]/[C,C]/[C,C]/ (3[C,C]/[C,C]/[C,C]/!ped-up! | %12
!ped! (3G,,/ [C,C]/[C,C]/ (3[C,C]/[C,C]/[C,C]/ (3[C,C]/[C,C]/[C,C]/ (3G,,/ [C,C]/[C,C]/!ped-up! | %13
 (3^^G,,/ [C,C]/[C,C]/ (3A,,/ [C,C]/[C,C]/ (3z/ [^^C,^G,^^C]/[C,G,C]/ (3A,,/ [C,G,C]/[C,G,C]/ | %14
 (3=B,,/ [D,F,D]/[D,F,D]/ (3[D,F,D]/[D,F,D]/[D,F,D]/ (3z/ [E,G,D]/[E,G,D]/ (3[E,G,D]/[E,G,D]/[E,G,D]/ | %15
!f! (3^B,,/[G,DF]/[G,DF]/ (3[G,DF]/[G,DF]/[G,DF]/ [G,DF]/[K:treble] (.[DF]/ .[FA]/ .[EG]/) | %16
[K:bass] (3C,/ [CE]/[CE]/ (3[CE]/[CD]/[CD]/ (3[CD]/[C^^D]/[CD]/ (3[CD]/[CE]/[CE]/ | %17
 (3[^F,,^F,]/[K:treble] [CA]/[CA]/ (3[CA]/[CGA]/[CGA]/ (3[CGA]/[CFA]/[CFA]/ (3[CFA]/[C=EA]/[CEA]/ | %18
 (3^F,/ [CDA]/[CDA]/ (3[CDA]/[CDA]/[CDA]/ (3[CDA]/[CDA]/[CDA]/ (3[CDA]/[CDA]/[CDA]/ | %19
 (3G,/ [DB]/[DB]/ (3[DB]/[DAB]/[DAB]/ (3[DAB]/[DGB]/[DGB]/ (3[DGB]/[DFB]/[DFB]/ | %20
 (3^^G,/ [D^E^B]/[DEB]/ (3[DEB]/[DEB]/[DEB]/ (3[DEB]/[DEB]/[DEB]/ (3[DEB]/[DEB]/[DEB]/ | %21
 (3A,/ [CEc]/[CEc]/ (3[CEc]/[CEc]/[CEc]/ (3^^F,/ [DAc]/[DAc]/ (3[DAc]/[DAc]/[DAc]/ | %22
 (3^G,/ [DG=B]/[DGB]/ (3[DGB]/[DGB]/[DGB]/ (3E,/ [CGB]/[CGB]/ (3[CGB]/[CGB]/[CGB]/ | %23
 (3^F,/ [CFA]/[CFA]/ (3[CFA]/[CFA]/[CFA]/ (3[CFA]/[CFA]/[CFA]/[K:bass] (3^B,,/ [G,DF]/[G,DF]/ | %24
 (3z/ [A,C]/[A,C]/ (3[A,C]/[A,C]/[A,C]/ [A,C]/ (.[=A,^B,]/ .[G,=B,]/ .[G,C]/) | %25
 z/ (C,/G,/>F,/) (F,/=E,/D,/C,/) | F,, F,- F,2 | z/!<(! C,/G,/!<)!F,/ D,/C,/B,,/A,,/ | %28
 G,,/F,,/!>(!D,,/C,,/ B,,,/!>)!A,,,/G,,,/F,,,/ |!p! F,,2 [F,,C,]2- | [F,,C,]2 z2 |] %31
V:4
 x4 | x4 | x4 | x4 | x4 | x4 | x4 | x4 | x4 | x/ F3/2- F2 | B4 | z/ F3/2- F2 | B4 | x4 | x4 | x4 | %16
 x4 | x4 | x4 | x4 | x4 | x4 | x4 | x/ c3/2 c z | x4 | (F4 | F2) !>!D [C^E] | F4- | F4- | %29
 [A,C]2 A,2- | A,2 x2 |] %31
V:5
 x4 | x4 | x4 | x4 | x4 | x4 | x4 | x4 | x4 | x4 | F/E/ z z2 | x4 | F/E/ z z2 | x4 | x4 | x4 | x4 | %17
 x4 | x4 | x4 | x4 | x4 | x4 | x4 | x4 | x4 | x4 | x4 | x4 | x4 | f2 x2 |] %31
V:6
 x/3[K:treble] x11/3 |[K:bass] x/3[K:treble] x11/3 | x4 | x4 | x4 | x4 | %6
[K:bass] x/3[K:treble] x11/3 | x4 |[K:bass] x4 | x4 | x4 | x4 | x4 | x4 | x4 | %15
 x5/2[K:treble] x3/2 |[K:bass] x4 | x/3[K:treble] x11/3 | x4 | x4 | x4 | x4 | x4 | x3[K:bass] x | %24
 C,2- C,/ C,/ C,/ C,/ | x/ C,7/2 | B,,/D,/F,/B,/ x2 | F,,4- | F,,4 | F,,,2 x2 | F,,,2 x2 |] %31
V:7
 x/3[K:treble] x11/3 |[K:bass] x/3[K:treble] x11/3 | x4 | x4 | x4 | x4 | %6
[K:bass] x/3[K:treble] x11/3 | x4 |[K:bass] x4 | x4 | x4 | x4 | x4 | x4 | x4 | %15
 x5/2[K:treble] x3/2 |[K:bass] x4 | x/3[K:treble] x11/3 | x4 | x4 | x4 | x4 | x4 | x3[K:bass] x | %24
 x4 | F,,4 | x4 | x4 | x4 | x4 | x4 |] %31

